X:534
T:Finlandia
Z:Jack Campin, http://www.campin.me.uk/
F:Jack Campin's Nine-Note Tunebook
% last edit 03-02-2013
C:Sibelius
M:4/4
L:1/4
Q:1/4=110
K:F
z A G A|B3 A|G A F>G|G A3|\
z A G A|B3 A|G A F>G|A4  |
z c c c|d3 A|A c c>G|G B3|\
z B A G|A3 F|F G G>A|A4  |
z c c c|d3 A|A c c>G|G B3|\
z B A G|A3 F|F G G>F|F4 |]

